Apricity Icons/16/panel/seafile-status-ok.svg

<svg xmlns="http://www.w3.org/2000/svg" width="16" height="16" version="1.1">
 <defs>
  <style id="current-color-scheme" type="text/css">
   .ColorScheme-Text { color:#dfdfdf; } .ColorScheme-Highlight { color:#4285f4; }
  </style>
 </defs>
 <path style="fill:currentColor" class="ColorScheme-Text" d="M 5.5 2 A 2.5 2.5 0 0 0 3 4.5 A 2.5 2.5 0 0 0 3.0800781 5.1152344 C 2.9016756 5.0403797 2.7055904 5 2.5 5 C 1.8477854 5 1.2983894 5.4186545 1.0917969 6 L 0.5 6 A 0.5 0.5 0 0 0 0 6.5 A 0.5 0.5 0 0 0 0.5 7 L 3.0644531 7 C 3.6964987 6.3840071 4.5557543 6 5.5 6 A 1.0001 1.0001 0 0 0 5.5019531 6 C 5.7732799 6.0005645 5.9929778 6.1900133 6.2539062 6.2519531 C 6.54165 5.2854225 7.1329499 4.4515097 7.9160156 3.8671875 A 2.5 2.5 0 0 0 5.5 2 z M 10.5 4 C 8.5670034 4 7 5.5670034 7 7.5 L 7 7.5039062 C 6.567749 7.1779487 6.0413714 7.0011264 5.5 7 C 4.1192881 7 3 8.1192881 3 9.5 C 3.001247 9.6901384 3.0241818 9.879514 3.0683594 10.064453 C 2.4345508 10.254893 2.0004442 10.838199 2 11.5 C 2 12.328427 2.6715729 13 3.5 13 L 4.1425781 13 C 4.7080074 12.842086 4.9855043 12.493302 5.2675781 12.146484 C 6.6976122 10.168231 7.9294547 8.0067754 10.189453 8 C 12 8 13 9 13 10.5 C 13 11.328427 12.328427 12 11.5 12 C 10.671573 12 10 11.328427 10 10.5 C 10.000367 10.363283 10.019421 10.227258 10.056641 10.095703 C 9.4241447 10.312787 8.9875173 10.915844 8.9394531 11.560547 C 8.9996371 13.072539 10.482422 13.013672 10.482422 13.013672 L 14 13 C 15.104569 13 16 12.104569 16 11 C 16 9.8954305 15.104569 9 14 9 C 13.880105 9.000332 13.760483 9.0114441 13.642578 9.0332031 C 13.876604 8.5559096 13.998837 8.031579 14 7.5 C 14 5.5670034 12.432997 4 10.5 4 z"/>
</svg>

<svg xmlns="http://www.w3.org/2000/svg" width="16" height="16"><defs><style id="current-color-scheme" type="text/css"></style></defs><path d="M5.5 2A2.5 2.5 0 0 0 3 4.5a2.5 2.5 0 0 0 .08.615A1.496 1.496 0 0 0 1.092 6H.5a.5.5 0 0 0-.5.5.5.5 0 0 0 .5.5h2.564c.632-.616 1.492-1 2.436-1a1 1 0 0 0 .002 0c.271 0 .491.19.752.252.288-.967.879-1.8 1.662-2.385A2.5 2.5 0 0 0 5.5 2zm5 2A3.5 3.5 0 0 0 7 7.5v.004A2.5 2.5 0 0 0 5.5 7 2.5 2.5 0 0 0 3 9.5c.001.19.024.38.068.564A1.5 1.5 0 0 0 3.5 13h.643c.565-.158.843-.507 1.125-.854 1.43-1.978 2.661-4.14 4.921-4.146C12 8 13 9 13 10.5a1.5 1.5 0 1 1-2.943-.404c-.633.217-1.07.82-1.118 1.465.06 1.512 1.543 1.453 1.543 1.453L14 13a2 2 0 1 0-.357-3.967A3.5 3.5 0 0 0 14 7.5 3.5 3.5 0 0 0 10.5 4z" fill="currentColor" color="#dfdfdf"/></svg>
